icons/xp.svg

<svg width="24" height="24" viewBox="0 0 24 24" fill="none" xmlns="http://www.w3.org/2000/svg">
<path fill-rule="evenodd" clip-rule="evenodd" d="M22.0004 6V14H18.0004V18H14.0004V6H22.0004ZM6.0004 6V9H8.0004V6H12L12.0004 10H10V14H12L12.0004 18H8L8.0004 15H6L6.0004 18H2V14H4V10H2.0004V6H6.0004ZM19.0004 8H17.0004V12H19.0004V8Z" fill="#3A3A47"/>
</svg>

<svg xmlns="http://www.w3.org/2000/svg" width="24" height="24" viewBox="0 0 24 24">
    <path fill="#3A3A47" fill-rule="evenodd" d="M22 6v8h-4v4h-4V6h8zM6 6v3h2V6h4v4h-2v4h2v4H8v-3H6v3H2v-4h2v-4H2V6h4zm13 2h-2v4h2V8z"/>
</svg>
